X:181
T:The Glen Road to Carrick
M:4/4
L:1/8
R:reel
D:The Chieftans: Water from the Well
N:Learned from Kira Ott
Z:Michael Abraham Shulman
N:There is also a `Donegal version' played by Altan on the same CD.
N:Not sure about the second measure of the B part (in either key).
K:G
dB|:AD(3DDD FD(3DDD|AD(3DDD d2dB|AD(3DDD FDAD|DEFD G2FG:|
|:A2AG F2FG|AddA BAGB|(3ABA (3GAG (3FGF (3EFE|1 DEFD G2FG:|2 DEFD G2af|
K:D
|:eA(3AAA cA(3AAA|eA(3AAA a2af|eA(3AAA cAeA|ABcA d2cd:|
|:e2ed c2cd|eaae fedf|(3efe (3ded (3cdc (3BcB|1 ABcA d2cd:|2 ABcA d4||
